src/assets/filled/Screenmirroring.svg

<?xml version="1.0" encoding="UTF-8"?>
<svg width="24" height="24" viewBox="0 0 24 24" xmlns="http://www.w3.org/2000/svg">
 <path d="m16.19 2h-8.38c-3.64 0-5.81 2.17-5.81 5.81v8.37c0 3.65 2.17 5.82 5.81 5.82h8.37c3.64 0 5.81-2.17 5.81-5.81v-8.38c0.01-3.64-2.16-5.81-5.8-5.81zm2.31 14.4c0 1.5-0.6 2.1-2.1 2.1h-3.8c-1.5 0-2.1-0.6-2.1-2.1v-1.8c0-1.5 0.6-2.1 2.1-2.1h3.8c1.5 0 2.1 0.6 2.1 2.1v1.8z"/>
</svg>

<svg width="24" height="24" viewBox="0 0 24 24"  xmlns="http://www.w3.org/2000/svg">
<path d="M16.19 2H7.81C4.17 2 2 4.17 2 7.81V16.18C2 19.83 4.17 22 7.81 22H16.18C19.82 22 21.99 19.83 21.99 16.19V7.81C22 4.17 19.83 2 16.19 2ZM18.5 16.4C18.5 17.9 17.9 18.5 16.4 18.5H12.6C11.1 18.5 10.5 17.9 10.5 16.4V14.6C10.5 13.1 11.1 12.5 12.6 12.5H16.4C17.9 12.5 18.5 13.1 18.5 14.6V16.4Z" />
</svg>
